libs/ui/packages/crypto-icons/src/svg/PAYX.svg

<svg width="24" height="24" viewBox="0 0 24 24" fill="none">
<path d="M8.84204 7.72315L9.77954 5.4259L16.201 5.44915C17.1385 5.51965 18.2635 5.51965 18.8965 6.3169C19.6465 7.1839 19.4823 8.4259 19.1073 9.4099C18.7459 10.4689 18.1185 11.4173 17.2854 12.1643C16.4523 12.9112 15.4413 13.4317 14.3493 13.6759C12.8028 13.9107 11.2323 13.8402 9.66179 13.8402C9.97454 13.0774 10.2873 12.3117 10.5993 11.5429C11.8885 11.5429 13.201 11.6134 14.5135 11.4027C15.709 11.0982 16.8108 9.90265 16.6233 8.59015C16.5055 8.02765 15.8733 7.76965 15.3333 7.76965C13.1778 7.6759 11.0208 7.76965 8.86529 7.7224H8.84204V7.72315Z" fill="#663300"/>
<path d="M6.07605 8.35535H13.6931L12.6858 10.9571H5.04405L6.07605 8.3786V8.3561V8.35535ZM7.2948 11.5428H9.94305L7.17855 18.5741H4.57605L7.31805 11.5428H7.2948Z" fill="#663300"/>
</svg>

<svg width="24" height="24" viewBox="0 0 24 24" fill="none"><path fill="#630" d="m8.842 7.723.938-2.297 6.421.023c.938.07 2.063.07 2.695.868.75.867.586 2.109.211 3.093a6.53 6.53 0 0 1-4.758 4.266c-1.546.235-3.117.164-4.687.164q.47-1.144.937-2.297c1.29 0 2.602.07 3.915-.14 1.195-.305 2.297-1.5 2.11-2.813-.118-.562-.75-.82-1.29-.82-2.156-.094-4.313 0-6.469-.048z"/><path fill="#630" d="M6.076 8.355h7.617l-1.007 2.602H5.044L6.076 8.38v-.023m1.219 3.188h2.648L7.18 18.574H4.576l2.742-7.031z"/></svg>
